Newaita/actions/16/adjustlevels.svg

<svg height="16" viewBox="0 0 16 16" width="16" xmlns="http://www.w3.org/2000/svg"><g fill="#424242"><path d="m12.898438 3.761719h1.324218c.183594 0 .332032-.144531.332032-.328125v-.664063c0-.179687-.148438-.328125-.332032-.328125h-1.324218c-.179688 0-.328126.148438-.328126.328125v.664063c0 .183594.148438.328125.328126.328125zm0 0"/><path d="m11.578125 1.449219c.914063 0 1.652344.738281 1.652344 1.652343 0 .917969-.738281 1.652344-1.652344 1.652344-.917969 0-1.65625-.734375-1.65625-1.652344 0-.914062.738281-1.652343 1.65625-1.652343zm0 .660156c-.550781 0-.992187.441406-.992187.992187 0 .550782.441406.992188.992187.992188.546875 0 .992187-.441406.992187-.992188 0-.550781-.445312-.992187-.992187-.992187zm0 0"/><path d="m1.652344 3.761719h8.601562c.183594 0 .332032-.144531.332032-.328125v-.664063c0-.179687-.148438-.328125-.332032-.328125h-8.601562c-.179688 0-.328125.148438-.328125.328125v.664063c0 .183594.148437.328125.328125.328125zm0 0"/><path d="m9.261719 13.6875h4.960937c.183594 0 .332032-.148438.332032-.332031v-.660157c0-.183593-.148438-.332031-.332032-.332031h-4.960937c-.183594 0-.332031.148438-.332031.332031v.660157c0 .183593.148437.332031.332031.332031zm0 0"/><path d="m7.9375 11.371094c.917969 0 1.65625.738281 1.65625 1.652344 0 .917968-.738281 1.65625-1.65625 1.65625-.914062 0-1.652344-.738282-1.652344-1.65625 0-.914063.738282-1.652344 1.652344-1.652344zm0 .660156c-.550781 0-.992188.445312-.992188.992188 0 .550781.441407.992187.992188.992187s.992188-.441406.992188-.992187c0-.546876-.441407-.992188-.992188-.992188zm0 0"/><path d="m1.652344 13.6875h4.960937c.183594 0 .332031-.148438.332031-.332031v-.660157c0-.183593-.148437-.332031-.332031-.332031h-4.960937c-.179688 0-.328125.148438-.328125.332031v.660157c0 .183593.148437.332031.328125.332031zm0 0"/><path d="m2.976562 8.726562h-1.324218c-.179688 0-.328125-.148437-.328125-.332031v-.660156c0-.183594.148437-.332031.328125-.332031h1.324218c.183594 0 .332032.148437.332032.332031v.660156c0 .183594-.148438.332031-.332032.332031zm0 0"/><path d="m4.300781 6.410156c-.917969 0-1.65625.738282-1.65625 1.652344 0 .917969.738281 1.65625 1.65625 1.65625.914063 0 1.652344-.738281 1.652344-1.65625 0-.914062-.738281-1.652344-1.652344-1.652344zm0 .660156c.550781 0 .992188.441407.992188.992188s-.441407.992188-.992188.992188-.992187-.441407-.992187-.992188.441406-.992188.992187-.992188zm0 0"/><path d="m14.222656 8.726562h-8.601562c-.179688 0-.328125-.148437-.328125-.332031v-.660156c0-.183594.148437-.332031.328125-.332031h8.601562c.183594 0 .332032.148437.332032.332031v.660156c0 .183594-.148438.332031-.332032.332031zm0 0"/></g></svg>

<?xml version="1.0" encoding="UTF-8"?>
<svg xmlns="http://www.w3.org/2000/svg" xmlns:xlink="http://www.w3.org/1999/xlink" width="16px" height="16px" viewBox="0 0 16 16" version="1.1">
<g id="surface1">
<path style=" stroke:none;fill-rule:nonzero;fill:rgb(25.882354%,25.882354%,25.882354%);fill-opacity:1;" d="M 12.898438 3.761719 L 14.222656 3.761719 C 14.40625 3.761719 14.554688 3.617188 14.554688 3.433594 L 14.554688 2.769531 C 14.554688 2.589844 14.40625 2.441406 14.222656 2.441406 L 12.898438 2.441406 C 12.71875 2.441406 12.570312 2.589844 12.570312 2.769531 L 12.570312 3.433594 C 12.570312 3.617188 12.71875 3.761719 12.898438 3.761719 Z M 12.898438 3.761719 "/>
<path style=" stroke:none;fill-rule:nonzero;fill:rgb(25.882354%,25.882354%,25.882354%);fill-opacity:1;" d="M 11.578125 1.449219 C 12.492188 1.449219 13.230469 2.1875 13.230469 3.101562 C 13.230469 4.019531 12.492188 4.753906 11.578125 4.753906 C 10.660156 4.753906 9.921875 4.019531 9.921875 3.101562 C 9.921875 2.1875 10.660156 1.449219 11.578125 1.449219 Z M 11.578125 2.109375 C 11.027344 2.109375 10.585938 2.550781 10.585938 3.101562 C 10.585938 3.652344 11.027344 4.09375 11.578125 4.09375 C 12.125 4.09375 12.570312 3.652344 12.570312 3.101562 C 12.570312 2.550781 12.125 2.109375 11.578125 2.109375 Z M 11.578125 2.109375 "/>
<path style=" stroke:none;fill-rule:nonzero;fill:rgb(25.882354%,25.882354%,25.882354%);fill-opacity:1;" d="M 1.652344 3.761719 L 10.253906 3.761719 C 10.4375 3.761719 10.585938 3.617188 10.585938 3.433594 L 10.585938 2.769531 C 10.585938 2.589844 10.4375 2.441406 10.253906 2.441406 L 1.652344 2.441406 C 1.472656 2.441406 1.324219 2.589844 1.324219 2.769531 L 1.324219 3.433594 C 1.324219 3.617188 1.472656 3.761719 1.652344 3.761719 Z M 1.652344 3.761719 "/>
<path style=" stroke:none;fill-rule:nonzero;fill:rgb(25.882354%,25.882354%,25.882354%);fill-opacity:1;" d="M 9.261719 13.6875 L 14.222656 13.6875 C 14.40625 13.6875 14.554688 13.539062 14.554688 13.355469 L 14.554688 12.695312 C 14.554688 12.511719 14.40625 12.363281 14.222656 12.363281 L 9.261719 12.363281 C 9.078125 12.363281 8.929688 12.511719 8.929688 12.695312 L 8.929688 13.355469 C 8.929688 13.539062 9.078125 13.6875 9.261719 13.6875 Z M 9.261719 13.6875 "/>
<path style=" stroke:none;fill-rule:nonzero;fill:rgb(25.882354%,25.882354%,25.882354%);fill-opacity:1;" d="M 7.9375 11.371094 C 8.855469 11.371094 9.59375 12.109375 9.59375 13.023438 C 9.59375 13.941406 8.855469 14.679688 7.9375 14.679688 C 7.023438 14.679688 6.285156 13.941406 6.285156 13.023438 C 6.285156 12.109375 7.023438 11.371094 7.9375 11.371094 Z M 7.9375 12.03125 C 7.386719 12.03125 6.945312 12.476562 6.945312 13.023438 C 6.945312 13.574219 7.386719 14.015625 7.9375 14.015625 C 8.488281 14.015625 8.929688 13.574219 8.929688 13.023438 C 8.929688 12.476562 8.488281 12.03125 7.9375 12.03125 Z M 7.9375 12.03125 "/>
<path style=" stroke:none;fill-rule:nonzero;fill:rgb(25.882354%,25.882354%,25.882354%);fill-opacity:1;" d="M 1.652344 13.6875 L 6.613281 13.6875 C 6.796875 13.6875 6.945312 13.539062 6.945312 13.355469 L 6.945312 12.695312 C 6.945312 12.511719 6.796875 12.363281 6.613281 12.363281 L 1.652344 12.363281 C 1.472656 12.363281 1.324219 12.511719 1.324219 12.695312 L 1.324219 13.355469 C 1.324219 13.539062 1.472656 13.6875 1.652344 13.6875 Z M 1.652344 13.6875 "/>
<path style=" stroke:none;fill-rule:nonzero;fill:rgb(25.882354%,25.882354%,25.882354%);fill-opacity:1;" d="M 2.976562 8.726562 L 1.652344 8.726562 C 1.472656 8.726562 1.324219 8.578125 1.324219 8.394531 L 1.324219 7.734375 C 1.324219 7.550781 1.472656 7.402344 1.652344 7.402344 L 2.976562 7.402344 C 3.160156 7.402344 3.308594 7.550781 3.308594 7.734375 L 3.308594 8.394531 C 3.308594 8.578125 3.160156 8.726562 2.976562 8.726562 Z M 2.976562 8.726562 "/>
<path style=" stroke:none;fill-rule:nonzero;fill:rgb(25.882354%,25.882354%,25.882354%);fill-opacity:1;" d="M 4.300781 6.410156 C 3.382812 6.410156 2.644531 7.148438 2.644531 8.0625 C 2.644531 8.980469 3.382812 9.71875 4.300781 9.71875 C 5.214844 9.71875 5.953125 8.980469 5.953125 8.0625 C 5.953125 7.148438 5.214844 6.410156 4.300781 6.410156 Z M 4.300781 7.070312 C 4.851562 7.070312 5.292969 7.511719 5.292969 8.0625 C 5.292969 8.613281 4.851562 9.054688 4.300781 9.054688 C 3.75 9.054688 3.308594 8.613281 3.308594 8.0625 C 3.308594 7.511719 3.75 7.070312 4.300781 7.070312 Z M 4.300781 7.070312 "/>
<path style=" stroke:none;fill-rule:nonzero;fill:rgb(25.882354%,25.882354%,25.882354%);fill-opacity:1;" d="M 14.222656 8.726562 L 5.621094 8.726562 C 5.441406 8.726562 5.292969 8.578125 5.292969 8.394531 L 5.292969 7.734375 C 5.292969 7.550781 5.441406 7.402344 5.621094 7.402344 L 14.222656 7.402344 C 14.40625 7.402344 14.554688 7.550781 14.554688 7.734375 L 14.554688 8.394531 C 14.554688 8.578125 14.40625 8.726562 14.222656 8.726562 Z M 14.222656 8.726562 "/>
</g>
</svg>
